static/img/kroki/05adfe03640904a4ed1c54be7d0b033d.svg

<?xml version="1.0" encoding="us-ascii" standalone="no"?><svg xmlns="http://www.w3.org/2000/svg" xmlns:xlink="http://www.w3.org/1999/xlink" contentStyleType="text/css" height="374px" preserveAspectRatio="none" style="width:285px;height:374px;" version="1.1" viewBox="0 0 285 374" width="285px" zoomAndPan="magnify"><defs/><g><!--class aws_resource--><g id="elem_aws_resource"><rect codeLine="23" fill="#3D176E" height="39.7891" id="aws_resource" rx="2.5" ry="2.5" style="stroke:#000D19;stroke-width:0.5;" width="155" x="65" y="167.79"/><ellipse cx="80" cy="187.6845" fill="#ADD1B2" rx="11" ry="11" style="stroke:#181818;stroke-width:1.0;"/><path d="M82.9688,193.3252 Q82.3906,193.622 81.75,193.7627 Q81.1094,193.9189 80.4063,193.9189 Q77.9063,193.9189 76.5781,192.2783 Q75.2656,190.622 75.2656,187.497 Q75.2656,184.372 76.5781,182.7158 Q77.9063,181.0595 80.4063,181.0595 Q81.1094,181.0595 81.75,181.2158 Q82.4063,181.372 82.9688,181.6689 L82.9688,184.3877 Q82.3438,183.8095 81.75,183.5439 Q81.1563,183.2627 80.5313,183.2627 Q79.1875,183.2627 78.5,184.3408 Q77.8125,185.4033 77.8125,187.497 Q77.8125,189.5908 78.5,190.6689 Q79.1875,191.7314 80.5313,191.7314 Q81.1563,191.7314 81.75,191.4658 Q82.3438,191.1845 82.9688,190.6064 L82.9688,193.3252 Z " fill="#000000"/><text fill="#D9B8FF" font-family="Helvetica" font-size="17" lengthAdjust="spacing" textLength="113" x="99" y="193.5698">aws_resource</text></g><!--class aws_sagemaker_workteam--><g id="elem_aws_sagemaker_workteam"><rect codeLine="26" fill="#3D176E" height="39.7891" id="aws_sagemaker_workteam" rx="2.5" ry="2.5" style="stroke:#000D19;stroke-width:0.5;" width="271" x="7" y="328.58"/><ellipse cx="22" cy="348.4745" fill="#ADD1B2" rx="11" ry="11" style="stroke:#181818;stroke-width:1.0;"/><path d="M24.9688,354.1152 Q24.3906,354.412 23.75,354.5527 Q23.1094,354.7089 22.4063,354.7089 Q19.9063,354.7089 18.5781,353.0683 Q17.2656,351.412 17.2656,348.287 Q17.2656,345.162 18.5781,343.5058 Q19.9063,341.8495 22.4063,341.8495 Q23.1094,341.8495 23.75,342.0058 Q24.4063,342.162 24.9688,342.4589 L24.9688,345.1777 Q24.3438,344.5995 23.75,344.3339 Q23.1563,344.0527 22.5313,344.0527 Q21.1875,344.0527 20.5,345.1308 Q19.8125,346.1933 19.8125,348.287 Q19.8125,350.3808 20.5,351.4589 Q21.1875,352.5214 22.5313,352.5214 Q23.1563,352.5214 23.75,352.2558 Q24.3438,351.9745 24.9688,351.3964 L24.9688,354.1152 Z " fill="#000000"/><text fill="#D9B8FF" font-family="Helvetica" font-size="17" lengthAdjust="spacing" textLength="229" x="41" y="354.3598">aws_sagemaker_workteam</text></g><!--class resource--><g id="elem_resource"><rect codeLine="29" fill="#3D176E" height="39.7891" id="resource" rx="2.5" ry="2.5" style="stroke:#000D19;stroke-width:0.5;" width="113" x="86" y="7"/><ellipse cx="101" cy="26.8945" fill="#ADD1B2" rx="11" ry="11" style="stroke:#181818;stroke-width:1.0;"/><path d="M103.9688,32.5352 Q103.3906,32.832 102.75,32.9727 Q102.1094,33.1289 101.4063,33.1289 Q98.9063,33.1289 97.5781,31.4883 Q96.2656,29.832 96.2656,26.707 Q96.2656,23.582 97.5781,21.9258 Q98.9063,20.2695 101.4063,20.2695 Q102.1094,20.2695 102.75,20.4258 Q103.4063,20.582 103.9688,20.8789 L103.9688,23.5977 Q103.3438,23.0195 102.75,22.7539 Q102.1563,22.4727 101.5313,22.4727 Q100.1875,22.4727 99.5,23.5508 Q98.8125,24.6133 98.8125,26.707 Q98.8125,28.8008 99.5,29.8789 Q100.1875,30.9414 101.5313,30.9414 Q102.1563,30.9414 102.75,30.6758 Q103.3438,30.3945 103.9688,29.8164 L103.9688,32.5352 Z " fill="#000000"/><text fill="#D9B8FF" font-family="Helvetica" font-size="17" lengthAdjust="spacing" textLength="71" x="120" y="32.7798">resource</text></g><!--reverse link resource to aws_resource--><g id="link_resource_aws_resource"><path codeLine="32" d="M142.5,65.05 C142.5,95.57 142.5,136.9 142.5,167.46 " fill="none" id="resource-backto-aws_resource" style="stroke:#FFAF37;stroke-width:2.0;"/><polygon fill="none" points="142.5,47.05,136.5,65.05,148.5,65.05,142.5,47.05" style="stroke:#FFAF37;stroke-width:2.0;"/></g><!--reverse link aws_resource to aws_sagemaker_workteam--><g id="link_aws_resource_aws_sagemaker_workteam"><path codeLine="33" d="M142.5,225.84 C142.5,256.36 142.5,297.69 142.5,328.25 " fill="none" id="aws_resource-backto-aws_sagemaker_workteam" style="stroke:#FFAF37;stroke-width:2.0;"/><polygon fill="none" points="142.5,207.84,136.5,225.84,148.5,225.84,142.5,207.84" style="stroke:#FFAF37;stroke-width:2.0;"/></g><!--SRC=[XP3DJiCm48JlVWfBFKTAg22DnAL4Gd2f4ELURU9rQYMnexL3L7xUdOP2SHBQ7htpUMPsjqeWnxfnErvZdI5PPakb6o2e-PB8TAcf3F6Pb23dyLYyDzfT15PG8t_0wXMToc5Cl6nLNcgqbbzvqXtaPK6crU9WxmYqtKkedKUb5LYxT8vKrZhqoeWaMqWv9iUcixc8uXkSO8O4qWyIXg68aZ5oCUhitaTYhTwGH_xHLiRXfEOaufiwsx8dl9AJHN_ransVG0Yb2txjpPuFdKWZ3URhBGZJzRI4olenrY6XSRi6qybMc2o4ZF-57q_1BEzFnw6p6q9hMigHlpFswSqj55X3YRJf39KEzyOUCVnrVDr-144mi6M3Z3zzQi- -0000]--></g></svg>

<svg xmlns="http://www.w3.org/2000/svg" width="285" height="374" viewBox="0 0 285 374"><rect width="155" height="39.789" x="65" y="167.79" fill="#3D176E" rx="2.5" ry="2.5" style="stroke:#000d19;stroke-width:.5"/><circle cx="80" cy="187.685" r="11" fill="#ADD1B2" style="stroke:#181818;stroke-width:1"/><path d="M82.969 193.325q-.578.297-1.219.438-.64.156-1.344.156-2.5 0-3.828-1.64-1.312-1.657-1.312-4.782t1.312-4.781q1.328-1.656 3.828-1.656.703 0 1.344.156.656.156 1.219.453v2.719q-.625-.578-1.219-.844-.594-.281-1.219-.281-1.344 0-2.031 1.078-.687 1.062-.687 3.156t.687 3.172q.688 1.062 2.031 1.062.625 0 1.219-.265.594-.281 1.219-.86z"/><text x="99" y="193.57" fill="#D9B8FF" font-family="Helvetica" font-size="17" textLength="113">aws_resource</text><rect width="271" height="39.789" x="7" y="328.58" fill="#3D176E" rx="2.5" ry="2.5" style="stroke:#000d19;stroke-width:.5"/><circle cx="22" cy="348.474" r="11" fill="#ADD1B2" style="stroke:#181818;stroke-width:1"/><path d="M24.969 354.115q-.578.297-1.219.438-.64.156-1.344.156-2.5 0-3.828-1.64-1.312-1.657-1.312-4.782t1.312-4.781q1.328-1.656 3.828-1.656.703 0 1.344.156.656.156 1.219.453v2.719q-.625-.579-1.219-.844-.594-.281-1.219-.281-1.343 0-2.031 1.078-.687 1.062-.687 3.156t.687 3.172q.688 1.062 2.031 1.062.625 0 1.219-.265.594-.281 1.219-.86z"/><text x="41" y="354.36" fill="#D9B8FF" font-family="Helvetica" font-size="17" textLength="229">aws_sagemaker_workteam</text><rect width="113" height="39.789" x="86" y="7" fill="#3D176E" rx="2.5" ry="2.5" style="stroke:#000d19;stroke-width:.5"/><circle cx="101" cy="26.895" r="11" fill="#ADD1B2" style="stroke:#181818;stroke-width:1"/><path d="M103.969 32.535q-.578.297-1.219.438-.64.156-1.344.156-2.5 0-3.828-1.64-1.312-1.657-1.312-4.782t1.312-4.781q1.328-1.656 3.828-1.656.703 0 1.344.156.656.156 1.219.453v2.719q-.625-.578-1.219-.844-.594-.281-1.219-.281-1.344 0-2.031 1.078-.687 1.062-.687 3.156t.687 3.172q.688 1.062 2.031 1.062.625 0 1.219-.265.594-.281 1.219-.86z"/><text x="120" y="32.78" fill="#D9B8FF" font-family="Helvetica" font-size="17" textLength="71">resource</text><path fill="none" d="M142.5 65.05v102.41m0-120.41-6 18h12zm0 178.79v102.41m0-120.41-6 18h12z" style="stroke:#ffaf37;stroke-width:2"/></svg>
